!!!OTL: Taubenpost.
!!!OTL-incipit: TAUBEN DAS SIND SCHOENE VOEGEL
!!!ARE: Europa, Mitteleuropa, Deutschland, Rhein
!!!SCT: Z1182
!!!TXL: @@DE
!!!YEM: Copyright 1995, estate of Helmut Schaffrath.
**kern	**text
*ICvox	*
*M3/4	*
*k[b-e-a-]	*
*E-:	*
!LO:TX:a:t=Vom Rheine.	!
{8b-/	Tauben,
16b-/L	.
16ccJ	.
=1	=1
4.b-/	das
8a-	ſind
8g	ſchö-
8a-	-ne
=2	=2
8cc/L	Vö-
8b-J	.
4b-/}	-gel,
{8ee-/	und
8cc/	nach
=3	=3
4.b-/	ih-
16a-L	-nen
16b-J	.
8a-	ſteht
8g	mein
=4	=4
4g	Sinn;
4f}	.
{8b-/	Tauben,
16b-/L	.
16ccJ	.
=5	=5
4.b-/	das
8a-	ſind
8g	ſchö-
8a-	-ne
=6	=6
8cc/L	Vö-
8b-J	.
4b-/}	-gel,
{8ee-/	und
8cc/	nach
=7	=7
4.b-/	ih-
16a-L	-nen
16b-J	.
8a-	ſteht
8g	mein
=8	=8
4g	Sinn;
4f}	.
{8b-/	in
16b-/L	der
16ccJ	.
=9	=9
4.b-/	Fer-
8a-	-ne
8a-	ſeh'
8g	ich
=10	=10
(>4g	ſchon,
4f)}	.
{8b-/	wie
16b-/L	ein
16ccJ	.
=11	=11
4.b-/	Stern
8a-	am
8a-	Him-
8g	-mel
=12	=12
4g	blau
4f}	.
{8b-/	mit
16cc/L	den
16ddJ	.
=13	=13
8ee-/	hel-
8cc/	-len
8cc/	Flitten
8b-/	.
8b-/	wird
16cc/L	die
16ddJ	.
=14	=14
8ee-/	Luft
8cc/	durchſchnitten,
8cc/	.
8b-/}	.
{8cc/	jetʒt
16b-L	ſchon
16a-J	.
=15	=15
4.g	na-
8b-/	-het
16b-L	es
16a-J	.
8f	mir
=16	=16
(>4f	hier,
4e-)}	.
{8b-/	mit
16cc/L	den
16ddJ	.
=17	=17
8ee-/	hel-
8cc/	-len
8cc/	Flitten
8b-/	.
8b-/	wird
16cc/L	die
16ddJ	.
=18	=18
8ee-/	Luft
8cc/	durchſchnitten,
8cc/	.
8b-/}	.
{8cc/	jetʒt
16b-L	ſchon
16a-J	.
=19	=19
4.g	na-
8b-/	-het
16b-L	es
16a-J	.
8f	mir
=20	=20
4e-	hier.
4r}	.
==	==
!!!AGN: Liebes - Lied
!!!ONB: ESAC (Essen Associative Code) Database: ZUCCAL
!!!AMT: simple triple
!!!AIN: vox
!!!EED: Helmut Schaffrath
!!!EEV: 1.0
!!!GTL: V. Lieder der Minne.
!!!URL-scan: https://www.digitale-sammlungen.de/de/view/bsb11160573?page=377
!!!ENC: Anna Maria Matuszewska
!!!EEV: 2025/02/05
*-	*-
